images/foss-logo-512.svg

<?xml version="1.0" standalone="no"?>
<!DOCTYPE svg PUBLIC "-//W3C//DTD SVG 1.1//EN" "http://www.w3.org/Graphics/SVG/1.1/DTD/svg11.dtd">
<svg width="100%" height="100%" viewBox="0 0 512 512" version="1.1" xmlns="http://www.w3.org/2000/svg" xmlns:xlink="http://www.w3.org/1999/xlink" xml:space="preserve" style="fill-rule:evenodd;clip-rule:evenodd;stroke-linejoin:round;stroke-miterlimit:1.41421;">
    <g id="Layer1">
        <path d="M255.905,13.8373C118.289,13.8373 6.72485,125.567 6.72485,263.404C6.72485,368.798 71.9608,458.94 164.178,495.526L227.213,336C198.358,324.554 177.941,296.373 177.941,263.404C177.941,220.283 212.85,185.327 255.903,185.327C298.958,185.327 333.867,220.283 333.867,263.404C333.867,296.373 313.43,324.556 284.595,336L347.612,495.526C439.849,458.94 505.068,368.798 505.068,263.404C505.068,125.567 393.524,13.8373 255.905,13.8373Z" style="fill:black;"/>
    </g>
</svg>

<svg viewBox="0 0 512 512" xmlns="http://www.w3.org/2000/svg" fill-rule="evenodd" clip-rule="evenodd"><path d="M255.905 13.837c-137.616 0-249.18 111.73-249.18 249.567 0 105.394 65.236 195.536 157.453 232.122l63.035-159.526c-28.855-11.446-49.272-39.627-49.272-72.596 0-43.121 34.909-78.077 77.962-78.077 43.055 0 77.964 34.956 77.964 78.077 0 32.969-20.437 61.152-49.272 72.596l63.017 159.526c92.237-36.586 157.456-126.728 157.456-232.122 0-137.837-111.544-249.567-249.163-249.567z"/></svg>
